X:181
T:Alle psallite cum luya
C:Manuscript de Montpellier (XIIIe siècle)
R:Motet
M:6/8
L:1/8
Q:1/4=155
% Last note suggests Dorian mode tune
K:C 
V:1
d3 c3 | d2c B2c | d3 c/2B/2A2 | A2-Az2z | 
A3 G3 | A2-Az2z | d3 c2d | e2e d2B | 
c2A B2c | d3 c/2B/2A2 | A2-Az2z | B3 B3 | 
A3 G3 | A2-Az2z | d3 c2d | e2e d2e | 
f2d e2c | d2c B2c | d3 c/2B/2A2 | A2-Az2z | 
B3 d2B | c2d B2c | A2G B2G | A2-Az2z | 
d3 c2d | e3 d/2c/2Bc | d6 |]
V:2
A2-Az2z | A3 G3 | A2-Az2z | d3 c3 | 
d2c B2c | d3 c/2B/2A2 | A2-Az2z | B3 B3 | 
A3 G3 | A2-Az2z | d3 c2d | e2e d2B | 
c2A B2c | d3 c/2B/2A2 | A2-Az2z | B3 d2B | 
c2d B2c | A2G B2G | A2-Az2z | d3 c2d | 
e2e d2e | f2d e2c | d2c B2c | d3 c/2B/2A2 | 
A3 A2B | B3 AG2 | A6 |]
V:3
D,3 F,2E, | D,3 E,3 | D,2-D,z2z | D,3 F,2E, | 
D,3 E,3 | D,2-D,z2z | D,3 F,3 | E,3 G,3 | 
F,3 E,3 | D,2-D,z2z | D,3 F,3 | E,3 G,3 | 
F,3 E,3 | D,2-D,z2z | D,3 F,3 | E,3 G,3 | 
F,2G, E,2F, | D,2C, E,2C, | D,2-D,z2z | D,3 F,3 | 
E,3 G,3 | F,2G, E,2F, | D,2C, E,2C, | D,2-D,z2z | 
D,3 F,3 | E,6 | D,6 |]





